src/22x22/places/folder-gruvbox-material-green-remote.svg

<?xml version="1.0" encoding="UTF-8"?>
<svg width="22" height="22" version="1" xmlns="http://www.w3.org/2000/svg">
 <rect x="1" y="8.5" width="20" height="12" rx="1" ry="1" opacity=".2"/>
 <path d="m1 16c0 0.554 0.446 1 1 1h18c0.554 0 1-0.446 1-1v-11c0-0.554-0.446-1-1-1h-9c-1.5 0-2-2-3.5-2h-5.5c-0.554 0-1 0.446-1 1" fill="#6c782e"/>
 <rect x="1" y="7.5" width="20" height="12" rx="1" ry="1" opacity=".2"/>
 <rect x="3" y="6" width="16" height="8" rx="1" ry="1" fill="#dde5c2"/>
 <rect x="1" y="8" width="20" height="12" rx="1" ry="1" fill="#a9b665"/>
 <path d="m2 2c-0.554 0-1 0.446-1 1v0.5c0-0.554 0.446-1 1-1h5.5c1.5 0 2 2 3.5 2h9c0.554 0 1 0.446 1 1v-0.5c0-0.554-0.446-1-1-1h-9c-1.5 0-2-2-3.5-2z" fill="#dde5c2" opacity=".1"/>
 <path d="m10 11c-1.011 0.202-1.798 0.99-2 2h-2v1h2c0.202 1.009 0.991 1.797 2 2zm1 0v5c1.01-0.202 1.798-0.99 2-2h2v-1h-2c-0.203-1.009-0.991-1.797-2-2z" fill="#424a3e"/>
</svg>

<svg xmlns="http://www.w3.org/2000/svg" width="22" height="22" version="1">
 <rect style="opacity:0.2" width="20" height="12" x="1" y="8.5" rx="1" ry="1"/>
 <path style="fill:#6c782e" d="M 1,16 C 1,16.554 1.446,17 2,17 H 20 C 20.554,17 21,16.554 21,16 V 5 C 21,4.446 20.554,4 20,4 H 11 C 9.5,4 9,2 7.5,2 H 2 C 1.446,2 1,2.446 1,3"/>
 <rect style="opacity:0.2" width="20" height="12" x="1" y="7.5" rx="1" ry="1"/>
 <rect style="fill:#dde5c2" width="16" height="8" x="3" y="6" rx="1" ry="1"/>
 <rect style="fill:#a9b665" width="20" height="12" x="1" y="8" rx="1" ry="1"/>
 <path style="opacity:0.1;fill:#dde5c2" d="M 2,2 C 1.446,2 1,2.446 1,3 V 3.5 C 1,2.946 1.446,2.5 2,2.5 H 7.5 C 9,2.5 9.5,4.5 11,4.5 H 20 C 20.554,4.5 21,4.946 21,5.5 V 5 C 21,4.446 20.554,4 20,4 H 11 C 9.5,4 9,2 7.5,2 Z"/>
 <path style="fill:#424a3e" d="M 10,11 C 8.989,11.202 8.202,11.99 8,13 H 6 V 14 H 8 C 8.202,15.009 8.991,15.797 10,16 Z M 11,11 V 16 C 12.01,15.798 12.798,15.01 13,14 H 15 V 13 H 13 C 12.797,11.991 12.009,11.203 11,11 Z"/>
</svg>
